!!!SOCIAL_FUNCTION: tick dance songs
!!!PDT:	1943
!!!LING_GROUP: Muskogean
!!!LANG: Non-Tone
Specific Region: Oklahoma, California, Mississippi, Louisiana, Texas, Alabama
!!!REG: Southeast
!!!COM: Anon.
!!!OTL: Tick Dance Song (b)
!!!ODT: <1933//
!!!MPN: Sidney Wesley
!!!MLC: Philadelphia, Mississippi, United States of America
!! Song was recorded in January 1933.
!!!AGN: monody
!!!AMT: irregular
!!!RWG: Transcribed pitches, durations, and meters are only approximate.
**kern
*ICvox
*Imale
*clefF4
*k[]
*M2/4
*MM132
=1-
4c
4G
*M3/4
=2
4.A
8B
8A
8E
*M2/4
=3
2G
=4
8G
8E
4E
=5
4G
8G
8E
=6
4.E
8r
=7
4E
8E
8r
=8
8B
8A
8G
8E
=9
2G
=10
8G
8E
8E
8r
=11
4G
8G
8E
=12
4.E
8r
*M3/4
=13
8E
8E
8E
8r
4A
*M2/4
=14
4.A
8E
=15
2G
=16
8G
8E
8E
8r
=17
4G
8G
8E
=18
4.E
8r
*M3/4
=19
8E
8E
8E
16r
16c
12c
12A
12B
*M2/4
*MM132
=20
2A
=21
4G
4E
*MM120
=22
8.c
16A
8.A
16E
*MM132
=23
4.G
8r
=24
8G
8E
4E
=25
4G
8G
8E
=26
4.E
8r
*M3/4
=27
4E
8E
16r
16A
8.A
16E
*M2/4
=28
2G
=29
8G
8E
8E
8r
=30
4G
8G
8E
=31
2E
*M3/4
=32
4E
8E
8r
4A
*M2/4
=33
4.A
8E
=34
4.G
8r
=35
8G
8E
8E
8r
=36
4G
8G
8E
=37
2E
*M3/4
=38
8E
8E
8E
16r
*MM120
16c
12c
12A
12B
*M2/4
*MM132
=39
4.A
8r
=40
4c
4G
*MM120
=41
8.c
16A
8.A
16E
*MM132
=42
2G
=43
8G
8E
4E
=44
4G
8G
8E
=45
2E
*M3/4
=46
8E
8E
8E
8r
4A
*M2/4
=47
4.A
8E
=48
4.G
8r
=49
8G
8E
8E
8r
=50
4G
8G
8E
=51
2E
=52
8E
8E
8E
8r
==
*-
!!!CNT: Choctaw
!!!TXO: Choctaw
!!!OCY: United States
!!!OCL: Frances Densmore
!!!YOR: Frances Densmore, "Choctaw Music"
!!!YOR: Bulletin 136, page 137, No. 11
!!!PPR: Smithsonian Institution, Bureau of American Ethnology
!!!PPR: Government Printing Office
!!!PDT: 1943
!!!PPP: Washington, DC, United States of America
!!!YEC: Electronic Copyright 2000 David Huron
!!!YER: August 2000
!!!YEN: United States of America
!!!ENC: David Huron
!!!RDT: August 27, 2000
!!!EEV: Release 1.0
!!!AIN: vox
